optimized/24/outline/horizontal-fill.svg

<svg viewBox="0 0 24 24" xmlns="http://www.w3.org/2000/svg" fill="currentColor" data-slot="icon">
  <g clip-path="url(#clip0_2117_12144)">
    <path d="M2 6.75C2 5.23122 3.23122 4 4.75 4H5.75C6.16421 4 6.5 4.33579 6.5 4.75C6.5 5.16421 6.16421 5.5 5.75 5.5H4.75C4.05964 5.5 3.5 6.05964 3.5 6.75L3.5 17.25C3.5 17.9404 4.05965 18.5 4.75 18.5H5.75C6.16422 18.5 6.5 18.8358 6.5 19.25C6.5 19.6642 6.16422 20 5.75 20H4.75C3.23122 20 2 18.7688 2 17.25L2 6.75Z"/>
    <path d="M22 17.25C22 18.7688 20.7688 20 19.25 20H18.25C17.8358 20 17.5 19.6642 17.5 19.25C17.5 18.8358 17.8358 18.5 18.25 18.5H19.25C19.9404 18.5 20.5 17.9404 20.5 17.25V6.75C20.5 6.05964 19.9404 5.5 19.25 5.5L18.25 5.5C17.8358 5.5 17.5 5.16421 17.5 4.75C17.5 4.33579 17.8358 4 18.25 4H19.25C20.7688 4 22 5.23122 22 6.75V17.25Z"/>
    <path d="M6 11.25C5.58579 11.25 5.25 11.5858 5.25 12C5.25 12.4142 5.58579 12.75 6 12.75H8C8.41422 12.75 8.75 12.4142 8.75 12C8.75 11.5858 8.41422 11.25 8 11.25H6Z"/>
    <path d="M10.25 12C10.25 11.5858 10.5858 11.25 11 11.25H13C13.4142 11.25 13.75 11.5858 13.75 12C13.75 12.4142 13.4142 12.75 13 12.75H11C10.5858 12.75 10.25 12.4142 10.25 12Z"/>
    <path d="M16 11.25C15.5858 11.25 15.25 11.5858 15.25 12C15.25 12.4142 15.5858 12.75 16 12.75H18C18.4142 12.75 18.75 12.4142 18.75 12C18.75 11.5858 18.4142 11.25 18 11.25H16Z"/>
  </g>
  <defs>
    <clipPath id="clip0_2117_12144">
      <rect width="24" height="24"/>
    </clipPath>
  </defs>
</svg>

<svg xmlns="http://www.w3.org/2000/svg" viewBox="0 0 24 24" fill="currentColor" data-slot="icon">
  <g clip-path="url(#a)">
    <path d="M2 6.75A2.75 2.75 0 0 1 4.75 4h1a.75.75 0 0 1 0 1.5h-1c-.69 0-1.25.56-1.25 1.25v10.5c0 .69.56 1.25 1.25 1.25h1a.75.75 0 0 1 0 1.5h-1A2.75 2.75 0 0 1 2 17.25V6.75Z"/>
    <path d="M22 17.25A2.75 2.75 0 0 1 19.25 20h-1a.75.75 0 0 1 0-1.5h1c.69 0 1.25-.56 1.25-1.25V6.75c0-.69-.56-1.25-1.25-1.25h-1a.75.75 0 0 1 0-1.5h1A2.75 2.75 0 0 1 22 6.75v10.5Z"/>
    <path d="M6 11.25a.75.75 0 0 0 0 1.5h2a.75.75 0 0 0 0-1.5H6Z"/>
    <path d="M10.25 12a.75.75 0 0 1 .75-.75h2a.75.75 0 0 1 0 1.5h-2a.75.75 0 0 1-.75-.75Z"/>
    <path d="M16 11.25a.75.75 0 0 0 0 1.5h2a.75.75 0 0 0 0-1.5h-2Z"/>
  </g>
  <defs>
    <clipPath id="a">
      <rect width="24" height="24"/>
    </clipPath>
  </defs>
</svg>
